X:1
T:Katjusja
T:Katjusja
T:anon.
C:anon.
%%score [ 1 2 3 4 ]
L:1/8
Q:1/4=80
M:2/4
K:G
V:1 treble nm="Soprano"
V:2 treble nm="Alto"
V:3 treble-8 nm="Tenor"
V:4 bass nm="Bass"
V:1
 [Ac]3 A | [GB]3 G | FA GF | E4 || E3 F | G3 E | G G F E | F2 B,2 | F3 G | A3 F | A A G F | E4 |: %12
w: A _|_ _|||Ra- stve-|ta- li|ja- blo- ni i|gru- sji,|Po- pli-|ni tu-|ma- ni nad re-|koj.|
 B2 e2 | (d2 e) d | c c B A | B2 E2 | z c2 A | B3 G | F B, G F | E4 :| %20
w: Vi- ho-|di- * la|na be- reg Ka-|tju- sja,|na vi-|so- ki|be- reg na kru-|toj.|
V:2
 E3 A | E3 G | FA GF | E4 || E3 E | E3 E | ^C C C C | ^D2 B,2 | B,3 B, | ^C3 C | ^D D D D | E4 |: %12
w: A _|_ _|||Ra- stve-|ta- li|ja- blo- ni i|gru- sji,|Po- pli-|ni tu-|ma- ni nad re-|koj.|
 G2 c2 | B3 B | A A B A | G2 E2 | z F2 F | G3 G | F B, G F | E4 :| %20
w: Vi- ho-|di- la|na be- reg Ka-|tju- sja,|na vi-|so- ki|be- reg na kru-|toj.|
V:3
 e4- | e4 | c2 A2 | B4 || G3 A | B3 G | B B B B | B2 B2 | A3 G | F3 F | F F G A | G4 |: G2 [Gc]2 | %13
w: A|_|||Ra- stve-|ta- li|ja- blo- ni i|gru- sji,|Po- pli-|ni tu-|ma- ni nad re-|koj.|Vi- ho-|
 d2 e2 | e e f e | e2 e2 | z e2 e | e3 B | B B B B | E4 :| %20
w: di- la|na be- reg Ka-|tju- sja,|na vi-|so- ki|be- reg na kru-|toj.|
V:4
 [F,,F,]4 | [G,,G,]4 | [A,,A,-]2 [B,,A,]2 | [E,G,]4 || E,3 E, | E,3 E, | E, E, E, E, | B,,2 B,,2 | %8
w: A|_|||Ra- stve-|ta- li|ja- blo- ni i|gru- sji,|
 B,,3 B,, | B,,3 B,, | B,, B,, B,, B,, | E,4 |: E,2 C,2 | [G,,G,]2 [^G,,^G,]2 | %14
w: Po- pli-|ni tu-|ma- ni nad re-|koj.|Vi- ho-|di- la|
 [A,,A,] [A,,A,] [F,,F,] [F,,F,] | [G,,G,]2 [^G,,^G,]2 | [A,,A,]2 [C,C]2 | [B,,B,]2 E,2 | %18
w: na be- reg Ka-|tju- sja,|na vi-|so- ki|
 B,, ^D, ^C, D, | E,4 :| %20
w: be- reg na kru-|toj.|

